X:1
T:May Day
R:reel
C:John Wobus
S:John Wobus composed 5/24/2004
M:2/4
K:G
|:B3d  cAFD | G2GB d2gf | e2ce d2Bd | cBAG FDdc |
  B2Bd cAFD | G2GB d2gf | edce dcBd | cAFA G4  :|
|:g3b  aged | gfgb aged | gdbd gdbd | abag gfef |
  g3g  fdBd | cdec dBGB | cBAc BAGB | AFDF G4  :|
W:Copyright 2004 John Wobus, PGTPPCATPL AORR
